X: 1099
T: American, The
R: reel
M: 4/4
K: Dmajor
g|f2 df ecAc|acAc e2 eg|f2 df ecAc|dBGB d2 dg|
f2 df ecAc|acAc e2 eg|f2 ed efge|dBGB d2 dg||
faec e2 Ag|faec e2 ef|faec efge|dBGB d2 dg:|

